packages/assets/static/images/icons/xlogo.svg

<svg width="24" height="24" viewBox="0 0 24 24" xmlns="http://www.w3.org/2000/svg">
<path d="M20.9487 19.6463L15.23 10.665L20.8287 4.50656C21.0252 4.28511 21.1264 3.99515 21.1105 3.69955C21.0946 3.40394 20.9629 3.12652 20.7438 2.92742C20.5247 2.72833 20.236 2.62361 19.9402 2.63596C19.6444 2.64832 19.3654 2.77676 19.1637 2.99344L13.9822 8.69719L10.4487 3.14625C10.3472 2.98659 10.207 2.85512 10.0412 2.76401C9.87533 2.6729 9.68919 2.62509 9.49998 2.625H4.99998C4.79845 2.62509 4.60065 2.67932 4.42725 2.78201C4.25385 2.88469 4.11121 3.03208 4.01426 3.20874C3.9173 3.38541 3.86958 3.58488 3.87608 3.78631C3.88259 3.98773 3.94308 4.1837 4.05123 4.35375L9.76998 13.335L4.16748 19.4934C4.06604 19.6024 3.98724 19.7304 3.93564 19.8701C3.88404 20.0097 3.86067 20.1582 3.86689 20.3069C3.8731 20.4557 3.90878 20.6017 3.97184 20.7366C4.03491 20.8714 4.12412 20.9924 4.23429 21.0925C4.34446 21.1927 4.47341 21.2699 4.61367 21.3198C4.75392 21.3698 4.90268 21.3914 5.05134 21.3834C5.2 21.3754 5.34559 21.3379 5.47968 21.2733C5.61377 21.2086 5.73368 21.1179 5.83248 21.0066L11.0178 15.3028L14.5512 20.8538C14.6528 21.0134 14.7929 21.1449 14.9588 21.236C15.1246 21.3271 15.3108 21.3749 15.5 21.375H20C20.2015 21.3749 20.3993 21.3207 20.5727 21.218C20.7461 21.1153 20.8887 20.9679 20.9857 20.7913C21.0827 20.6146 21.1304 20.4151 21.1239 20.2137C21.1174 20.0123 21.0569 19.8163 20.9487 19.6463ZM16.1178 19.125L7.04935 4.875H8.88216L17.9506 19.125H16.1178Z"/>
</svg>

<svg viewBox="0 0 24 24" xmlns="http://www.w3.org/2000/svg" aria-hidden="true" fill="currentColor" height="24px" width="24px"><path d="m20.949 19.646-5.719-8.981 5.599-6.158a1.125 1.125 0 0 0-1.665-1.514l-5.182 5.704-3.533-5.55a1.13 1.13 0 0 0-.949-.522H5a1.125 1.125 0 0 0-.949 1.729l5.719 8.981-5.603 6.158a1.125 1.125 0 1 0 1.665 1.514l5.186-5.704 3.533 5.55a1.13 1.13 0 0 0 .949.522H20a1.125 1.125 0 0 0 .949-1.729m-4.831-.521L7.049 4.875h1.833l9.069 14.25z"/></svg>
